img/service__08.svg

<svg width="38" height="35" viewBox="0 0 38 35" fill="none" xmlns="http://www.w3.org/2000/svg">
<path fill-rule="evenodd" clip-rule="evenodd" d="M27.9571 9.93379C27.9571 6.29678 24.9985 3.33789 21.3615 3.33789C17.7245 3.33789 14.7656 6.29678 14.7656 9.93379C14.7656 13.5705 17.7245 16.5294 21.3615 16.5294C24.9982 16.5294 27.9571 13.5705 27.9571 9.93379ZM16.25 9.93379C16.25 7.11522 18.543 4.82227 21.3615 4.82227C24.1798 4.82227 26.4728 7.11522 26.4728 9.93379C26.4728 12.7521 24.1798 15.045 21.3615 15.045C18.543 15.045 16.25 12.7521 16.25 9.93379Z" fill="white"/>
<path fill-rule="evenodd" clip-rule="evenodd" d="M37.9599 33.0664L36.2509 28.0706C36.1184 27.6827 35.6963 27.4759 35.3086 27.6084C34.9207 27.7412 34.7137 28.163 34.8465 28.551L36.0114 31.956L29.3474 29.0612C29.1856 28.9911 29.0041 28.9809 28.8354 29.0322L18.9999 32.03L9.1645 29.0322C8.99577 28.9809 8.81428 28.9911 8.65251 29.0612L1.98877 31.956L3.15336 28.551C3.28614 28.163 3.07914 27.7412 2.69123 27.6084C2.30362 27.4759 1.8815 27.6827 1.749 28.0706L0.0399433 33.0664C-0.0551494 33.3447 0.0228383 33.6526 0.238826 33.8521C0.378566 33.9811 0.559185 34.0489 0.742412 34.0489C0.842144 34.0489 0.942745 34.0287 1.03784 33.9875L8.99316 30.5317L18.7837 33.5155C18.9246 33.5587 19.0753 33.5587 19.2162 33.5155L29.0067 30.5317L36.962 33.9875C37.2319 34.1046 37.5451 34.0516 37.761 33.8521C37.977 33.6526 38.055 33.3447 37.9599 33.0664Z" fill="white"/>
<path fill-rule="evenodd" clip-rule="evenodd" d="M4.13487 23.3935C4.21431 23.4208 4.29549 23.4338 4.37521 23.4338C4.68369 23.4338 4.97186 23.2399 5.07739 22.9317L6.676 18.2579L11.433 16.3532V24.6031C11.433 24.9052 11.6162 25.1771 11.8962 25.2908C11.9867 25.3276 12.0812 25.3453 12.1749 25.3453C12.372 25.3453 12.5651 25.2667 12.7077 25.12L18.2817 19.3756C19.2741 19.6997 20.3085 19.8635 21.3629 19.8635C24.0545 19.8635 26.4991 18.7865 28.2893 17.0415L31.3271 18.2579L32.926 22.9317C33.0315 23.2399 33.3197 23.4338 33.6281 23.4338C33.7076 23.4338 33.7887 23.4208 33.8682 23.3935C34.2561 23.261 34.4631 22.8389 34.3303 22.4513L32.6213 17.4552C32.5514 17.2508 32.3957 17.087 32.1951 17.0064L29.3272 15.858C30.5614 14.2032 31.2926 12.1523 31.2926 9.93385C31.2926 4.45848 26.8383 0.00390625 21.3629 0.00390625C15.8875 0.00390625 11.433 4.45848 11.433 9.93385V14.754L5.80827 17.0064C5.60765 17.087 5.45197 17.2508 5.38181 17.4552L3.67304 22.4513C3.54025 22.8389 3.74696 23.261 4.13487 23.3935ZM12.9173 9.93385C12.9173 5.27692 16.706 1.48828 21.3629 1.48828C26.0196 1.48828 29.8082 5.27692 29.8082 9.93385C29.8082 14.5905 26.0196 18.3791 21.3629 18.3791C20.3238 18.3791 19.3088 18.1924 18.3457 17.8239C18.0686 17.7178 17.7546 17.7874 17.5479 18.0005L12.9173 22.7725V9.93385Z" fill="white"/>
<path fill-rule="evenodd" clip-rule="evenodd" d="M3.41016 26.2422C3.81894 26.2422 4.15234 25.9088 4.15234 25.5C4.15234 25.0912 3.81894 24.7578 3.41016 24.7578C3.00137 24.7578 2.66797 25.0912 2.66797 25.5C2.66797 25.9088 3.00137 26.2422 3.41016 26.2422Z" fill="white"/>
<path fill-rule="evenodd" clip-rule="evenodd" d="M33.8438 25.5C33.8438 25.9088 34.1772 26.2422 34.5859 26.2422C34.9947 26.2422 35.3281 25.9088 35.3281 25.5C35.3281 25.0912 34.9947 24.7578 34.5859 24.7578C34.1772 24.7578 33.8438 25.0912 33.8438 25.5Z" fill="white"/>
</svg>

<svg width="38" height="35" fill="none" xmlns="http://www.w3.org/2000/svg"><path fill-rule="evenodd" clip-rule="evenodd" d="M27.957 9.934a6.603 6.603 0 00-6.596-6.596 6.603 6.603 0 00-6.595 6.596 6.603 6.603 0 006.595 6.595 6.603 6.603 0 006.596-6.595zm-11.707 0a5.117 5.117 0 015.111-5.112 5.117 5.117 0 015.112 5.112 5.117 5.117 0 01-5.111 5.111 5.117 5.117 0 01-5.112-5.111zm21.71 23.132l-1.71-4.995a.742.742 0 10-1.404.48l1.165 3.405-6.664-2.895a.744.744 0 00-.512-.029L19 32.03l-9.835-2.998a.744.744 0 00-.512.03l-6.664 2.894 1.164-3.405a.742.742 0 10-1.404-.48l-1.71 4.995a.742.742 0 00.999.921l7.955-3.455 9.79 2.984a.743.743 0 00.433 0l9.79-2.984 7.956 3.455a.742.742 0 00.998-.92z" fill="#fff"/><path fill-rule="evenodd" clip-rule="evenodd" d="M4.135 23.393a.739.739 0 00.942-.461l1.599-4.674 4.757-1.905v8.25a.742.742 0 001.275.517l5.574-5.744a9.898 9.898 0 003.08.487 9.896 9.896 0 006.927-2.822l3.038 1.217 1.599 4.674a.743.743 0 001.404-.48l-1.709-4.997a.743.743 0 00-.426-.449l-2.868-1.148a9.877 9.877 0 001.966-5.924c0-5.476-4.455-9.93-9.93-9.93-5.476 0-9.93 4.454-9.93 9.93v4.82l-5.625 2.252a.744.744 0 00-.426.45L3.673 22.45a.742.742 0 00.462.942zm8.782-13.46c0-4.656 3.789-8.445 8.446-8.445s8.445 3.789 8.445 8.446-3.788 8.445-8.445 8.445a8.41 8.41 0 01-3.017-.555.742.742 0 00-.798.176l-4.63 4.773V9.933zM3.41 26.242a.744.744 0 00.742-.742.744.744 0 00-.742-.742.744.744 0 00-.742.742c0 .409.333.742.742.742zm30.434-.742c0 .409.333.742.742.742a.744.744 0 00.742-.742.744.744 0 00-.742-.742.744.744 0 00-.742.742z" fill="#fff"/></svg>
